assets/icons/qvision/auto_stories.svg

<svg xmlns="http://www.w3.org/2000/svg" height="24" viewBox="0 0 24 24" width="24"><path d="M0 0h24v24H0V0z" fill="none"/><path d="M19 1l-5 5v11l5-4.5V1zM1 6v14.65c0 .25.25.5.5.5.1 0 .15-.05.25-.05C3.1 20.45 5.05 20 6.5 20c1.95 0 4.05.4 5.5 1.5V6c-1.45-1.1-3.55-1.5-5.5-1.5S2.45 4.9 1 6zm22 13.5V6c-.6-.45-1.25-.75-2-1v13.5c-1.1-.35-2.3-.5-3.5-.5-1.7 0-4.15.65-5.5 1.5v2c1.35-.85 3.8-1.5 5.5-1.5 1.65 0 3.35.3 4.75 1.05.1.05.15.05.25.05.25 0 .5-.25.5-.5v-1.1z"/></svg>

<svg width="24" height="24" viewBox="0 0 24 24" fill="none" xmlns="http://www.w3.org/2000/svg">
<g clip-path="url(#clip0_147_3221)">
<path d="M19 1L14 6V17L19 12.5V1ZM1 6V20.65C1 20.9 1.25 21.15 1.5 21.15C1.6 21.15 1.65 21.1 1.75 21.1C3.1 20.45 5.05 20 6.5 20C8.45 20 10.55 20.4 12 21.5V6C10.55 4.9 8.45 4.5 6.5 4.5C4.55 4.5 2.45 4.9 1 6ZM23 19.5V6C22.4 5.55 21.75 5.25 21 5V18.5C19.9 18.15 18.7 18 17.5 18C15.8 18 13.35 18.65 12 19.5V21.5C13.35 20.65 15.8 20 17.5 20C19.15 20 20.85 20.3 22.25 21.05C22.35 21.1 22.4 21.1 22.5 21.1C22.75 21.1 23 20.85 23 20.6V19.5Z" fill="#323232"/>
</g>
<defs>
<clipPath id="clip0_147_3221">
<rect width="24" height="24" fill="white"/>
</clipPath>
</defs>
</svg>
